Vector/symbolic/devices/colorimeter-colorhug-symbolic.svg

<svg xmlns="http://www.w3.org/2000/svg" width="16" height="16" version="1.1">
 <path style="fill:#444444" d="M 6,7.0005 V 2.2015 C 6,1.7515 6.17,1.4915 6.44,1.2915 6.7,1.0915 7.1,0.99155 7.5,1.0115 7.9,1.0315 8.28,1.1615 8.56,1.4215 8.84,1.6715 9.03,2.0015 9.03,2.5415 9.03,4.7115 10.5,6.0515 12.03,6.0115 12.89,5.9915 13.72,5.5315 14.28,4.7015 L 13.72,3.7015 C 13.34,4.6115 12.65,4.9915 12,5.0115 11.04,5.0415 10.03,4.2815 10.03,2.5415 10.03,1.7515 9.69,1.1015 9.22,0.67155 8.74,0.24155 8.14,0.04155 7.53,0.01155 7.38,0.00155 7.21,-0.00845 7.06,0.01155 6.61,0.06155 6.18,0.23155 5.81,0.51155 5.32,0.88155 5,1.4615 5,2.2015 V 7.0005 M 14,2.0115 V 2.1315 L 14.78,3.5115 C 14.79,3.4715 14.8,3.4315 14.81,3.3815 Z M 14,2.3515 C 13.99,2.4615 13.98,2.5715 13.97,2.6715 L 14.69,3.8815 14.75,3.7015 Z M 13.94,2.8515 C 13.92,2.9415 13.89,3.0215 13.88,3.1015 L 14.53,4.2315 C 14.56,4.1715 14.6,4.1115 14.63,4.0415 Z M 13.84,3.2915 C 13.82,3.3815 13.78,3.4615 13.75,3.5415 L 14.34,4.5715 C 14.38,4.5115 14.43,4.4515 14.47,4.3815 Z"/>
 <path style="fill:#444444" d="M 2.8,6 H 8.2 C 8.6432,6 9,6.3568 9,6.8 V 13.2 C 9,13.643 8.6432,14 8.2,14 H 2.8 C 2.3568,14 2,13.643 2,13.2 V 6.8 C 2,6.3568 2.3568,6 2.8,6 Z"/>
</svg>

<svg xmlns="http://www.w3.org/2000/svg" width="16" height="16"><path d="M6 7V2.202c0-.45.17-.71.44-.91.26-.2.66-.3 1.06-.28.4.02.78.15 1.06.41.28.25.47.58.47 1.12 0 2.17 1.47 3.51 3 3.47.86-.02 1.69-.48 2.25-1.31l-.56-1c-.38.91-1.07 1.29-1.72 1.31-.96.03-1.97-.73-1.97-2.47 0-.79-.34-1.44-.81-1.87-.48-.43-1.08-.63-1.69-.66a2.46 2.46 0 0 0-.47 0c-.45.05-.88.22-1.25.5-.49.37-.81.95-.81 1.69V7m9-4.989v.12l.78 1.38c.01-.04.02-.08.03-.13zm0 .34l-.03.32.72 1.21.06-.18zm-.06.5c-.02.09-.05.17-.06.25l.65 1.13c.03-.06.07-.12.1-.19zm-.1.44c-.02.09-.06.17-.09.25l.59 1.03c.04-.06.09-.12.13-.19z" fill="#555555"/><path d="M2.8 6h5.4c.443 0 .8.357.8.8v6.4c0 .443-.357.8-.8.8H2.8a.798.798 0 0 1-.8-.8V6.8c0-.443.357-.8.8-.8z" fill="#555555"/></svg>
